24x24/actions/path-cut.svg

<svg height="24" width="24" xmlns="http://www.w3.org/2000/svg"><g fill="#8b9cbe" transform="translate(4 4)"><path d="m5 5v3h1v-2h2v-1zm7 0v1h2v8h-8v-2h-1v3h10v-10z"/><path d="m5.5 0a5.5 5.5 0 0 0 -5.5 5.5 5.5 5.5 0 0 0 5.5 5.5 5.5 5.5 0 0 0 5.5-5.5 5.5 5.5 0 0 0 -5.5-5.5zm0 2a3.5 3.5 0 0 1 3.5 3.5 3.5 3.5 0 0 1 -3.5 3.5 3.5 3.5 0 0 1 -3.5-3.5 3.5 3.5 0 0 1 3.5-3.5z" opacity=".3"/></g></svg>

<svg xmlns="http://www.w3.org/2000/svg" width="24" height="24"><defs><style id="current-color-scheme" type="text/css">.ColorScheme-Text{color:#8b9cbe}</style></defs><path style="fill:currentColor" class="ColorScheme-Text" d="M5 5v3h1V6h2V5H5zm7 0v1h2v8H6v-2H5v3h10V5h-3z" transform="translate(4 4)"/><path style="opacity:.3;fill:currentColor" class="ColorScheme-Text" d="M5.5 0A5.5 5.5 0 0 0 0 5.5 5.5 5.5 0 0 0 5.5 11 5.5 5.5 0 0 0 11 5.5 5.5 5.5 0 0 0 5.5 0zm0 2A3.5 3.5 0 0 1 9 5.5 3.5 3.5 0 0 1 5.5 9 3.5 3.5 0 0 1 2 5.5 3.5 3.5 0 0 1 5.5 2z" transform="translate(4 4)"/></svg>
